svgs/regular/sword-laser.svg

<svg xmlns="http://www.w3.org/2000/svg" viewBox="0 0 512 512"><!-- Font Awesome Pro 5.15.1 by @fontawesome - https://fontawesome.com License - https://fontawesome.com/license (Commercial License) --><path d="M176.53532,223.49668a8.003,8.003,0,0,0-11.31445,0l-11.31249,11.31446a7.99945,7.99945,0,0,0,0,11.31446l4.48047,4.47851L15.99828,393.00458a54.62106,54.62106,0,0,0,0,77.24613l25.75,25.752a54.61858,54.61858,0,0,0,77.24411-.002L261.3849,353.60026l5.66015,5.66211a8.003,8.003,0,0,0,11.31445,0L289.672,347.94791a7.99708,7.99708,0,0,0,0-11.3125ZM85.051,462.06125a6.62791,6.62791,0,0,1-9.35937.00391L49.93968,436.31124a6.632,6.632,0,0,1,0-9.36719l63.19723-63.19925,35.11327,35.1133Zm74.51168-74.51566-35.11326-35.11525,11.31445-11.31251,35.11326,35.1133Zm22.6289-22.62892-35.11327-35.1133,11.31055-11.31446,35.11522,35.1133Zm22.625-22.62892-35.11327-35.1133,11.31445-11.3125,35.11327,35.1133ZM503.28323,8.71532a29.769,29.769,0,0,0-41.26561-.79492l-237.58779,218.215,61.43552,61.43558,218.2128-237.588A29.76768,29.76768,0,0,0,503.28323,8.71532Z"/></svg>

<svg xmlns="http://www.w3.org/2000/svg" viewBox="0 0 512 512"><!-- Font Awesome Pro 6.0.0-alpha2 by @fontawesome - https://fontawesome.com License - https://fontawesome.com/license (Commercial License) --><path d="M176.507 223.508C173.383 220.383 168.384 220.383 165.259 223.508L153.886 234.756C150.761 237.881 150.761 243.005 153.886 246.13L158.385 250.629L16.029 392.985C-5.343 414.357 -5.343 448.852 16.029 470.224L41.776 495.971C63.148 517.343 97.643 517.343 119.015 495.971L261.371 353.615L266.995 359.239C270.12 362.364 275.244 362.364 278.369 359.239L289.617 347.991C292.742 344.866 292.742 339.742 289.617 336.617L176.507 223.508ZM85.02 461.975C82.52 464.6 78.271 464.6 75.771 462.1L50.025 436.229C47.4 433.729 47.4 429.48 50.025 426.98L113.141 363.739L148.261 398.859L85.02 461.975ZM159.635 387.486L124.514 352.365L135.763 341.117L170.883 376.237L159.635 387.486ZM182.257 364.864L147.136 329.743L158.385 318.495L193.505 353.615L182.257 364.864ZM204.879 342.242L169.758 307.121L181.007 295.873L216.127 330.993L204.879 342.242ZM503.213 8.787C491.965 -2.587 473.717 -2.962 461.969 7.912L224.376 226.132L285.868 287.624L504.088 50.031C514.962 38.283 514.587 20.035 503.213 8.787Z"/></svg>
